SVG_Azure_Grouped/Data/Data and Storage.svg

<?xml version="1.0" encoding="UTF-8" standalone="no"?>
<!-- Generated by Microsoft Visio, SVG Export Data and Storage.svg Page-1 -->

<svg
   xmlns:dc="http://purl.org/dc/elements/1.1/"
   xmlns:cc="http://creativecommons.org/ns#"
   xmlns:rdf="http://www.w3.org/1999/02/22-rdf-syntax-ns#"
   xmlns:svg="http://www.w3.org/2000/svg"
   xmlns="http://www.w3.org/2000/svg"
   xmlns:sodipodi="http://sodipodi.sourceforge.net/DTD/sodipodi-0.dtd"
   xmlns:inkscape="http://www.inkscape.org/namespaces/inkscape"
   width="0.78745091in"
   height="0.78735in"
   viewBox="0 0 56.696362 56.689198"
   xml:space="preserve"
   class="st10"
   version="1.1"
   id="svg81"
   sodipodi:docname="Data and Storage.svg"
   style="font-size:12px;overflow:visible;color-interpolation-filters:sRGB;fill:none;fill-rule:evenodd;stroke-linecap:square;stroke-miterlimit:3"
   inkscape:version="0.92.5 (2060ec1f9f, 2020-04-08)"><metadata
   id="metadata87"><rdf:RDF><cc:Work
       rdf:about=""><dc:format>image/svg+xml</dc:format><dc:type
         rdf:resource="http://purl.org/dc/dcmitype/StillImage" /></cc:Work></rdf:RDF></metadata><defs
   id="defs85" /><sodipodi:namedview
   pagecolor="#ffffff"
   bordercolor="#666666"
   borderopacity="1"
   objecttolerance="10"
   gridtolerance="10"
   guidetolerance="10"
   inkscape:pageopacity="0"
   inkscape:pageshadow="2"
   inkscape:window-width="640"
   inkscape:window-height="480"
   id="namedview83"
   showgrid="false"
   inkscape:zoom="1.7345798"
   inkscape:cx="37.795356"
   inkscape:cy="22.671065"
   inkscape:window-x="0"
   inkscape:window-y="0"
   inkscape:window-maximized="0"
   inkscape:current-layer="svg81" />
	<style
   type="text/css"
   id="style2">
	<![CDATA[
		.st1 {fill:#a0a1a2;stroke:none;stroke-linecap:butt;stroke-width:11.3333}
		.st2 {fill:#7a7a7a}
		.st3 {stroke:none;stroke-linecap:butt;stroke-width:11.3333}
		.st4 {fill:#b8d432;stroke:none;stroke-linecap:butt;stroke-width:11.3333}
		.st5 {fill:#ffffff;stroke:none;stroke-linecap:butt;stroke-width:11.3333}
		.st6 {fill:#ffffff;fill-opacity:0.2;stroke:none;stroke-linecap:butt;stroke-width:11.3333}
		.st7 {fill:#0072c6;stroke:none;stroke-linecap:butt;stroke-width:11.3333}
		.st8 {fill:#ffffff;fill-opacity:0.15;stroke:none;stroke-linecap:butt;stroke-width:11.3333}
		.st9 {fill:#57a300;stroke:none;stroke-linecap:butt;stroke-width:11.3333}
		.st10 {fill:none;fill-rule:evenodd;font-size:12px;overflow:visible;stroke-linecap:square;stroke-miterlimit:3}
	]]>
	</style>

	<g
   id="g79"
   transform="translate(-11.333405,-11.3351)">
		<title
   id="title4">Page-1</title>
		<g
   id="group19532-1"
   transform="translate(11.3335,-34.0157)">
			<title
   id="title6">Data and Storage.19532</title>
			<g
   id="group19533-2">
				<title
   id="title8">g30</title>
				<g
   id="shape19534-3"
   transform="translate(0,-23.4436)">
					<title
   id="title10">path4</title>
					<path
   d="m 28.17,94.22 c 0,-2.36 4.41,-4.36 10.5,-5.04 V 74.98 H 0 v 25.59 a 1.44882,1.44882 -180 0 0 1.4,1.47 h 26.77 z"
   class="st1"
   id="path12"
   inkscape:connector-curvature="0"
   style="fill:#a0a1a2;stroke:none;stroke-width:11.33329964;stroke-linecap:butt" />
				</g>
				<g
   id="shape19535-5"
   transform="translate(0,-50.5092)">
					<title
   id="title15">path6</title>
					<path
   d="M 1.4,95.93 A 1.44882,1.44882 -180 0 0 0,97.4 v 4.64 H 38.66 V 97.1 c 0,-0.78 -0.62,-1.24 -1.47,-1.24 z"
   class="st2"
   id="path17"
   inkscape:connector-curvature="0"
   style="fill:#7a7a7a" />
					<path
   d="M 1.4,95.93 A 1.44882,1.44882 -180 0 0 0,97.4 v 4.64 H 38.66 V 97.1 c 0,-0.78 -0.62,-1.24 -1.47,-1.24"
   class="st3"
   id="path19"
   inkscape:connector-curvature="0"
   style="stroke:none;stroke-width:11.33329964;stroke-linecap:butt" />
				</g>
				<g
   id="shape19536-8"
   transform="translate(3.09711,-34.6457)">
					<title
   id="title22">path8</title>
					<path
   d="M 32.47,100.89 V 96.61 H 0 v 5.43 h 28.6 a 21.5748,21.5748 0 0 1 3.87,-1.15 z"
   class="st4"
   id="path24"
   inkscape:connector-curvature="0"
   style="fill:#b8d432;stroke:none;stroke-width:11.33329964;stroke-linecap:butt" />
				</g>
				<g
   id="shape19537-10"
   transform="translate(3.09711,-42.7717)">
					<title
   id="title27">path10</title>
					<rect
   x="0"
   y="96.624702"
   width="32.472401"
   height="5.4173198"
   class="st5"
   id="rect29"
   style="fill:#ffffff;stroke:none;stroke-width:11.33329964;stroke-linecap:butt" />
				</g>
				<g
   id="shape19538-12"
   transform="translate(3.11811,-26.5407)">
					<title
   id="title32">path12</title>
					<path
   d="m 25.05,97.32 a 1.98425,1.98425 0 0 1 0.15,-0.7 H 0 v 5.42 h 25.05 z"
   class="st4"
   id="path34"
   inkscape:connector-curvature="0"
   style="fill:#b8d432;stroke:none;stroke-width:11.33329964;stroke-linecap:butt" />
				</g>
				<g
   id="shape19539-14"
   transform="translate(0,-23.5066)">
					<title
   id="title37">path14</title>
					<path
   d="M 1.54,68.86 A 1.55381,1.55381 -180 0 0 0,70.4 v 29.85 c 0,1.54 0.69,1.79 1.54,1.79 h 1.7 L 33.71,68.86 Z"
   class="st6"
   id="path39"
   inkscape:connector-curvature="0"
   style="fill:#ffffff;fill-opacity:0.2;stroke:none;stroke-width:11.33329964;stroke-linecap:butt" />
				</g>
				<g
   id="shape19540-16"
   transform="translate(29.3963)">
					<title
   id="title42">path16</title>
					<path
   d="M 0,70.85 V 97.1 c 0,2.78 6.11,4.94 13.65,4.94 V 70.85 Z"
   class="st7"
   id="path44"
   inkscape:connector-curvature="0"
   style="fill:#0072c6;stroke:none;stroke-width:11.33329964;stroke-linecap:butt" />
				</g>
				<g
   id="shape19541-18"
   transform="translate(42.8556)">
					<title
   id="title47">path18</title>
					<path
   d="m 0,102.04 h 0.19 c 7.54,0 13.65,-2.21 13.65,-4.94 V 70.85 H 0 Z"
   class="st7"
   id="path49"
   inkscape:connector-curvature="0"
   style="fill:#0072c6;stroke:none;stroke-width:11.33329964;stroke-linecap:butt" />
				</g>
				<g
   id="shape19542-20"
   transform="translate(42.8556)">
					<title
   id="title52">path20</title>
					<path
   d="m 0,102.04 h 0.19 c 7.54,0 13.65,-2.21 13.65,-4.94 V 70.85 H 0 Z"
   class="st8"
   id="path54"
   inkscape:connector-curvature="0"
   style="fill:#ffffff;fill-opacity:0.15;stroke:none;stroke-width:11.33329964;stroke-linecap:butt" />
				</g>
				<g
   id="shape19543-22"
   transform="translate(29.3963,-26.2467)">
					<title
   id="title57">path22</title>
					<path
   d="m 27.3,97.1 c 0,2.73 -6.11,4.94 -13.65,4.94 C 6.11,102.04 0,99.83 0,97.1 c 0,-2.73 6.11,-4.95 13.65,-4.95 7.54,0 13.65,2.22 13.65,4.95 z"
   class="st5"
   id="path59"
   inkscape:connector-curvature="0"
   style="fill:#ffffff;stroke:none;stroke-width:11.33329964;stroke-linecap:butt" />
				</g>
				<g
   id="shape19544-24"
   transform="translate(32.189,-28.231)">
					<title
   id="title62">path24</title>
					<path
   d="m 21.72,98.78 c 0,1.8 -4.86,3.26 -10.85,3.26 -6,0 -10.87,-1.45 -10.87,-3.26 0,-1.82 4.86,-3.25 10.86,-3.25 5.99,0 10.86,1.46 10.86,3.25 z"
   class="st9"
   id="path64"
   inkscape:connector-curvature="0"
   style="fill:#57a300;stroke:none;stroke-width:11.33329964;stroke-linecap:butt" />
				</g>
				<g
   id="shape19545-26"
   transform="translate(32.189,-29.4803)">
					<title
   id="title67">path26</title>
					<path
   d="m 19.44,102.04 c 1.42,-0.55 2.28,-1.24 2.28,-1.99 0,-1.81 -4.86,-3.27 -10.85,-3.27 -6,0 -10.87,1.46 -10.87,3.25 0,0.74 0.85,1.43 2.28,1.99 a 25.3543,25.3543 0 0 1 8.58,-1.25 25.3648,25.3648 0 0 1 8.58,1.27 z"
   class="st4"
   id="path69"
   inkscape:connector-curvature="0"
   style="fill:#b8d432;stroke:none;stroke-width:11.33329964;stroke-linecap:butt" />
				</g>
				<g
   id="shape19546-28"
   transform="translate(33.0709,-8.39895)">
					<title
   id="title72">path28</title>
					<path
   d="M 5.64,97.51 A 2.24672,2.24672 0 0 1 4.72,99.4 3.9895,3.9895 0 0 1 2.27,100.07 4.67192,4.67192 0 0 1 0.04,99.59 V 97.67 A 3.44357,3.44357 -180 0 0 2.32,98.56 1.55381,1.55381 -180 0 0 3.24,98.31 0.755906,0.755906 -180 0 0 3.565459,97.66958 0.892388,0.892388 -180 0 0 3.250498,96.987165 5.79528,5.79528 -180 0 0 1.97,96.25 2.82415,2.82415 0 0 1 0,93.73 a 2.27822,2.27822 0 0 1 0.86,-1.86 3.50656,3.50656 0 0 1 2.28,-0.7 5.70079,5.70079 0 0 1 2.1,0.32 v 1.8 A 3.41207,3.41207 -180 0 0 3.25,92.69 1.46982,1.46982 -180 0 0 2.37,92.93 0.745407,0.745407 -180 0 0 2.044541,93.559921 0.902887,0.902887 -180 0 0 2.307008,94.231837 4.19948,4.19948 -180 0 0 3.36,94.88 a 5.31234,5.31234 0 0 1 1.72,1.16 2.16273,2.16273 0 0 1 0.56,1.47 z m 9.27,-1.96 a 4.91339,4.91339 0 0 1 -0.74,2.64 3.68504,3.68504 0 0 1 -1.94,1.56 l 2.54,2.29 h -2.52 l -1.78,-2 a 4.19948,4.19948 0 0 1 -2.1,-0.61 3.80052,3.80052 0 0 1 -1.43,-1.55 4.74541,4.74541 0 0 1 -0.47,-2.14 5.12336,5.12336 0 0 1 0.54,-2.38 3.86352,3.86352 0 0 1 1.54,-1.62 4.46194,4.46194 0 0 1 2.25,-0.56 4.19948,4.19948 0 0 1 2.1,0.54 3.72703,3.72703 0 0 1 1.46,1.56 4.91339,4.91339 0 0 1 0.55,2.27 z m -2.04,0.11 a 3.37008,3.37008 -180 0 0 -0.57,-2.1 1.84777,1.84777 -180 0 0 -1.56,-0.76 1.96325,1.96325 -180 0 0 -1.62,0.77 3.70604,3.70604 -180 0 0 0,4.04 1.91076,1.91076 -180 0 0 1.58,0.76 1.94226,1.94226 -180 0 0 1.59,-0.74 3.14961,3.14961 -180 0 0 0.58,-1.96 z m 8.59,4.26 h -5.12 v -8.61 h 1.94 v 7.04 h 3.18 z"
   class="st5"
   id="path74"
   inkscape:connector-curvature="0"
   style="fill:#ffffff;stroke:none;stroke-width:11.33329964;stroke-linecap:butt" />
				</g>
			</g>
		</g>
	</g>
</svg>

<?xml version="1.0" encoding="UTF-8" standalone="no"?>
<!DOCTYPE svg PUBLIC "-//W3C//DTD SVG 1.1//EN" "http://www.w3.org/Graphics/SVG/1.1/DTD/svg11.dtd">
<!-- Generated by Microsoft Visio, SVG Export Data and Storage.svg Page-1 -->
<svg xmlns="http://www.w3.org/2000/svg" xmlns:xlink="http://www.w3.org/1999/xlink" xmlns:ev="http://www.w3.org/2001/xml-events"
		width="1.10222in" height="1.41725in" viewBox="0 0 79.3597 102.042" xml:space="preserve" color-interpolation-filters="sRGB"
		class="st10">
	<style type="text/css">
	<![CDATA[
		.st1 {fill:#a0a1a2;stroke:none;stroke-linecap:butt;stroke-width:11.3333}
		.st2 {fill:#7a7a7a}
		.st3 {stroke:none;stroke-linecap:butt;stroke-width:11.3333}
		.st4 {fill:#b8d432;stroke:none;stroke-linecap:butt;stroke-width:11.3333}
		.st5 {fill:#ffffff;stroke:none;stroke-linecap:butt;stroke-width:11.3333}
		.st6 {fill:#ffffff;fill-opacity:0.2;stroke:none;stroke-linecap:butt;stroke-width:11.3333}
		.st7 {fill:#0072c6;stroke:none;stroke-linecap:butt;stroke-width:11.3333}
		.st8 {fill:#ffffff;fill-opacity:0.15;stroke:none;stroke-linecap:butt;stroke-width:11.3333}
		.st9 {fill:#57a300;stroke:none;stroke-linecap:butt;stroke-width:11.3333}
		.st10 {fill:none;fill-rule:evenodd;font-size:12px;overflow:visible;stroke-linecap:square;stroke-miterlimit:3}
	]]>
	</style>

	<g>
		<title>Page-1</title>
		<g id="group19083-1" transform="translate(11.3335,-34.0157)">
			<title>Data and Storage.19083</title>
			<g id="group19084-2">
				<title>g30</title>
				<g id="shape19085-3" transform="translate(0,-23.4436)">
					<title>path4</title>
					<path d="M28.17 94.22 C28.17 91.86 32.58 89.86 38.67 89.18 L38.67 74.98 L0 74.98 L0 100.57 A1.44882 1.44882 -180
								 0 0 1.4 102.04 L28.17 102.04 L28.17 94.22 Z" class="st1"/>
				</g>
				<g id="shape19086-5" transform="translate(2.79776E-13,-50.5092)">
					<title>path6</title>
					<path d="M1.4 95.93 A1.44882 1.44882 -180 0 0 0 97.4 L0 102.04 L38.66 102.04 L38.66 97.1 C38.66 96.32 38.04 95.86
								 37.19 95.86 L1.4 95.93 Z" class="st2"/>
					<path d="M1.4 95.93 A1.44882 1.44882 -180 0 0 0 97.4 L0 102.04 L38.66 102.04 L38.66 97.1 C38.66 96.32 38.04 95.86
								 37.19 95.86" class="st3"/>
				</g>
				<g id="shape19087-8" transform="translate(3.09711,-34.6457)">
					<title>path8</title>
					<path d="M32.47 100.89 L32.47 96.61 L0 96.61 L0 102.04 L28.6 102.04 A21.5748 21.5748 0 0 1 32.47 100.89 Z"
							class="st4"/>
				</g>
				<g id="shape19088-10" transform="translate(3.09711,-42.7717)">
					<title>path10</title>
					<rect x="0" y="96.6247" width="32.4724" height="5.41732" class="st5"/>
				</g>
				<g id="shape19089-12" transform="translate(3.11811,-26.5407)">
					<title>path12</title>
					<path d="M25.05 97.32 A1.98425 1.98425 0 0 1 25.2 96.62 L0 96.62 L0 102.04 L25.05 102.04 L25.05 97.32 Z"
							class="st4"/>
				</g>
				<g id="shape19090-14" transform="translate(-2.81775E-13,-23.5066)">
					<title>path14</title>
					<path d="M1.54 68.86 A1.55381 1.55381 -180 0 0 -0 70.4 L0 100.25 C0 101.79 0.69 102.04 1.54 102.04 L3.24 102.04
								 L33.71 68.86 L1.54 68.86 Z" class="st6"/>
				</g>
				<g id="shape19091-16" transform="translate(29.3963,2.98428E-13)">
					<title>path16</title>
					<path d="M0 70.85 L0 97.1 C0 99.88 6.11 102.04 13.65 102.04 L13.65 70.85 L0 70.85 Z" class="st7"/>
				</g>
				<g id="shape19092-18" transform="translate(42.8556,2.98428E-13)">
					<title>path18</title>
					<path d="M0 102.04 L0.19 102.04 C7.73 102.04 13.84 99.83 13.84 97.1 L13.84 70.85 L0 70.85 L0 102.04 Z"
							class="st7"/>
				</g>
				<g id="shape19093-20" transform="translate(42.8556,2.98428E-13)">
					<title>path20</title>
					<path d="M0 102.04 L0.19 102.04 C7.73 102.04 13.84 99.83 13.84 97.1 L13.84 70.85 L0 70.85 L0 102.04 Z"
							class="st8"/>
				</g>
				<g id="shape19094-22" transform="translate(29.3963,-26.2467)">
					<title>path22</title>
					<path d="M27.3 97.1 C27.3 99.83 21.19 102.04 13.65 102.04 C6.11 102.04 0 99.83 0 97.1 C0 94.37 6.11 92.15 13.65
								 92.15 C21.19 92.15 27.3 94.37 27.3 97.1 Z" class="st5"/>
				</g>
				<g id="shape19095-24" transform="translate(32.189,-28.231)">
					<title>path24</title>
					<path d="M21.72 98.78 C21.72 100.58 16.86 102.04 10.87 102.04 C4.87 102.04 0 100.59 0 98.78 C0 96.96 4.86 95.53
								 10.86 95.53 C16.85 95.53 21.72 96.99 21.72 98.78 Z" class="st9"/>
				</g>
				<g id="shape19096-26" transform="translate(32.189,-29.4803)">
					<title>path26</title>
					<path d="M19.44 102.04 C20.86 101.49 21.72 100.8 21.72 100.05 C21.72 98.24 16.86 96.78 10.87 96.78 C4.87 96.78
								 0 98.24 0 100.03 C0 100.77 0.85 101.46 2.28 102.02 A25.3543 25.3543 0 0 1 10.86 100.77 A25.3648
								 25.3648 0 0 1 19.44 102.04 Z" class="st4"/>
				</g>
				<g id="shape19097-28" transform="translate(33.0709,-8.39895)">
					<title>path28</title>
					<path d="M5.64 97.51 A2.24672 2.24672 0 0 1 4.72 99.4 A3.9895 3.9895 0 0 1 2.27 100.07 A4.67192 4.67192 0 0 1
								 0.04 99.59 L0.04 97.67 A3.44357 3.44357 -180 0 0 2.32 98.56 A1.55381 1.55381 -180 0 0 3.24 98.31
								 a0.755906 0.755906 -180 0 0 0.325459 -0.64042 a0.892388 0.892388 -180 0 0 -0.314961 -0.682415 A5.79528
								 5.79528 -180 0 0 1.97 96.25 A2.82415 2.82415 0 0 1 0 93.73 A2.27822 2.27822 0 0 1 0.86 91.87 A3.50656
								 3.50656 0 0 1 3.14 91.17 A5.70079 5.70079 0 0 1 5.24 91.49 L5.24 93.29 A3.41207 3.41207 -180 0 0
								 3.25 92.69 A1.46982 1.46982 -180 0 0 2.37 92.93 a0.745407 0.745407 -180 0 0 -0.325459 0.629921 a0.902887
								 0.902887 -180 0 0 0.262467 0.671916 A4.19948 4.19948 -180 0 0 3.36 94.88 A5.31234 5.31234 0 0 1
								 5.08 96.04 A2.16273 2.16273 0 0 1 5.64 97.51 ZM14.91 95.55 A4.91339 4.91339 0 0 1 14.17 98.19 A3.68504
								 3.68504 0 0 1 12.23 99.75 L14.77 102.04 L12.25 102.04 L10.47 100.04 A4.19948 4.19948 0 0 1 8.37
								 99.43 A3.80052 3.80052 0 0 1 6.94 97.88 A4.74541 4.74541 0 0 1 6.47 95.74 A5.12336 5.12336 0 0 1
								 7.01 93.36 A3.86352 3.86352 0 0 1 8.55 91.74 A4.46194 4.46194 0 0 1 10.8 91.18 A4.19948 4.19948
								 0 0 1 12.9 91.72 A3.72703 3.72703 0 0 1 14.36 93.28 A4.91339 4.91339 0 0 1 14.91 95.55 ZM12.87 95.66
								 A3.37008 3.37008 -180 0 0 12.3 93.56 A1.84777 1.84777 -180 0 0 10.74 92.8 A1.96325 1.96325 -180
								 0 0 9.12 93.57 A3.70604 3.70604 -180 0 0 9.12 97.61 A1.91076 1.91076 -180 0 0 10.7 98.37 A1.94226
								 1.94226 -180 0 0 12.29 97.63 A3.14961 3.14961 -180 0 0 12.87 95.67 L12.87 95.66 ZM21.46 99.92 L16.34
								 99.92 L16.34 91.31 L18.28 91.31 L18.28 98.35 L21.46 98.35 L21.46 99.92 Z" class="st5"/>
				</g>
			</g>
		</g>
	</g>
</svg>
